<?xml version="1.0" encoding="UTF-8"?>
<map version="1.10" tiledversion="1.12.2" orientation="isometric" renderorder="right-down" width="20" height="20" tilewidth="32" tileheight="16" infinite="0" nextlayerid="5" nextobjectid="14">
 <tileset firstgid="1" name="spritesheet" tilewidth="32" tileheight="32" tilecount="121" columns="11">
  <image source="map_spritesheet.png" width="352" height="352"/>
 </tileset>
 <layer id="1" name="Tile Layer 1" width="20" height="20">
  <data encoding="csv">
37,37,37,37,37,37,25,25,1,3,5,25,25,34,34,37,37,37,37,37,
37,37,111,37,37,37,25,25,3,3,5,25,25,34,34,24,24,24,24,37,
37,37,111,111,61,61,111,24,24,1,5,25,25,24,34,34,24,24,24,24,
37,37,111,111,111,61,111,111,24,1,2,25,111,111,61,37,37,24,24,24,
37,37,37,111,111,111,111,111,24,70,69,3,111,111,111,111,37,37,24,24,
24,37,111,111,111,111,111,111,69,70,69,111,111,111,111,111,37,37,37,37,
25,23,111,111,69,34,24,24,111,70,70,111,111,1,34,34,37,37,37,37,
1,1,69,69,69,34,34,34,1,70,1,1,1,1,25,34,34,34,37,37,
1,1,69,69,69,1,1,1,1,1,1,1,1,1,5,25,25,34,37,37,
35,35,111,111,111,1,1,1,1,1,25,25,25,1,1,1,1,5,25,37,
35,35,111,111,111,35,35,1,1,25,25,25,25,24,25,1,1,5,5,5,
35,111,111,111,111,111,35,1,1,25,25,25,24,24,24,40,1,1,1,5,
37,37,111,111,111,111,32,1,1,29,29,23,40,40,23,37,40,40,1,1,
34,37,111,111,111,111,32,32,30,29,29,29,29,32,40,40,37,40,40,40,
24,37,37,37,111,111,111,25,30,30,32,29,29,32,32,40,40,37,37,37,
24,37,37,111,111,111,111,37,1,1,1,29,29,29,29,32,37,37,23,37,
24,24,37,37,37,111,111,37,1,1,25,25,37,32,32,32,37,37,37,37,
24,24,37,37,37,37,111,37,37,1,1,25,37,37,37,37,37,37,37,37,
24,24,24,37,37,35,37,24,1,1,1,25,25,37,37,37,37,37,37,37,
37,24,37,37,37,37,37,24,1,1,1,25,25,25,37,37,37,37,37,37
</data>
 </layer>
 <layer id="4" name="Tile Layer 2" width="20" height="20">
  <data encoding="csv">
0,0,0,0,0,0,0,0,0,0,0,0,0,0,0,0,0,0,0,0,
0,0,0,0,0,0,0,0,0,0,0,0,0,0,0,0,0,0,0,0,
0,0,0,0,0,0,0,0,0,0,0,0,0,0,0,0,0,0,0,0,
0,0,0,0,0,0,0,0,0,0,0,0,0,0,0,0,0,0,0,0,
0,0,0,0,0,0,0,0,0,0,0,0,0,0,0,0,0,0,0,0,
0,0,0,0,0,0,0,0,0,0,0,0,0,0,0,0,0,0,0,0,
0,0,0,0,0,0,0,0,0,0,0,0,0,0,0,0,0,0,0,0,
0,0,0,0,0,0,0,0,0,0,0,0,0,0,0,0,0,0,0,0,
0,0,0,0,0,0,0,0,0,0,0,0,0,0,0,0,0,0,0,0,
0,0,0,0,0,0,0,0,42,42,0,0,0,0,0,0,0,0,0,0,
0,0,0,0,0,0,0,0,45,45,0,0,0,0,0,0,0,0,0,0,
0,0,0,0,0,0,0,0,0,0,0,0,0,0,0,0,0,0,0,0,
0,0,0,0,0,0,0,0,0,0,0,0,0,0,0,0,0,0,0,0,
0,0,0,0,0,0,0,0,0,0,0,0,0,0,0,0,0,0,0,0,
0,0,0,0,0,0,0,0,0,0,0,0,0,0,0,0,0,0,0,0,
0,0,0,0,0,0,0,0,0,0,0,0,0,0,0,0,0,0,0,0,
0,0,0,0,0,0,0,0,0,0,0,0,0,0,0,0,0,0,0,0,
0,0,0,0,0,0,0,0,0,0,0,0,0,0,0,0,0,0,0,0,
0,0,0,0,0,0,0,0,0,0,0,0,0,0,0,0,0,0,0,0,
0,0,0,0,0,0,0,0,0,0,0,0,0,0,0,0,0,0,0,0
</data>
 </layer>
 <objectgroup id="3" name="Collisions" class="wall">
  <object id="3" type="wall" x="-35" y="-22" width="21.3337" height="675.334"/>
  <object id="4" type="wall" x="257.333" y="33.3333"/>
  <object id="5" x="203.333" y="331.333"/>
  <object id="6" x="-17.833" y="637.333" width="657.5" height="24.5"/>
  <object id="12" x="639.167" y="-3.167" width="32.5" height="639"/>
  <object id="13" x="-10.833" y="-44.667" width="637.5" height="34.5"/>
  <object id="7" x="26.3333" y="163"/>
  <object id="8" x="72.3333" y="226.333"/>
  <object id="9" x="69.6667" y="226.333"/>
 </objectgroup>
</map>
