<?xml version="1.0" encoding="UTF-8"?>
<map version="1.10" tiledversion="1.12.2" orientation="isometric" renderorder="right-down" width="30" height="20" tilewidth="32" tileheight="16" infinite="0" nextlayerid="4" nextobjectid="12">
 <tileset firstgid="1" name="spritesheet" tilewidth="32" tileheight="32" tilecount="121" columns="11">
  <image source="map_spritesheet.png" width="352" height="352"/>
 </tileset>
 <layer id="1" name="Tile Layer 1" width="30" height="20">
  <data encoding="csv">
0,0,0,0,36,0,37,37,44,44,25,15,15,25,36,36,25,113,111,0,0,0,0,0,0,0,0,0,0,0,
0,0,0,36,36,36,0,37,44,44,25,25,15,36,36,36,25,113,111,111,111,0,0,0,0,0,0,0,0,0,
0,0,0,36,36,36,0,37,44,44,44,25,15,36,36,36,25,113,111,111,111,0,0,0,0,0,0,0,0,0,
0,0,0,36,0,36,37,37,44,44,44,25,15,25,36,36,25,113,111,111,111,111,0,0,0,0,0,0,0,0,
0,0,0,36,36,36,0,37,44,44,44,25,15,25,25,36,25,113,111,111,111,111,0,0,0,0,0,0,0,0,
0,0,0,36,36,36,37,37,37,37,25,38,15,10,25,65,36,113,36,111,111,111,0,0,0,0,0,0,0,0,
0,0,0,0,36,36,36,25,25,37,38,38,15,10,10,69,36,36,36,36,111,111,111,0,0,0,0,0,0,0,
0,0,0,0,0,36,36,37,25,41,38,41,40,15,10,10,10,36,36,36,38,38,111,0,0,0,0,0,0,0,
0,0,0,0,0,0,36,36,41,28,38,29,40,15,10,10,36,36,36,36,38,38,118,118,0,0,0,0,0,0,
0,0,0,0,0,0,37,37,41,28,38,37,37,40,15,40,10,36,36,37,0,38,38,118,111,0,0,0,0,0,
0,0,0,0,0,0,37,37,29,29,38,37,37,38,15,38,38,37,80,0,37,38,38,38,111,0,0,0,0,0,
0,0,0,0,0,0,0,36,37,37,38,37,37,38,15,38,25,38,37,37,38,38,38,38,111,0,0,0,0,0,
0,0,0,0,0,0,36,36,36,37,38,38,38,38,15,38,38,38,37,38,38,38,38,113,111,0,0,0,0,0,
0,0,0,0,0,0,36,36,36,36,36,37,37,15,15,38,38,38,38,38,118,111,111,111,111,0,0,0,0,0,
0,0,0,0,0,0,36,36,36,36,36,36,37,15,15,38,38,38,38,37,37,113,111,36,36,0,0,0,0,0,
0,0,0,0,0,0,0,37,36,36,36,36,25,15,38,38,38,38,37,37,37,36,36,36,0,0,0,0,0,0,
0,0,0,0,0,0,0,0,36,36,25,25,25,15,38,38,38,37,37,113,111,36,36,36,0,0,0,0,0,0,
0,0,0,0,0,0,0,0,37,36,25,25,25,15,38,25,25,37,37,113,111,36,36,36,0,0,0,0,0,0,
0,0,0,0,0,0,0,0,0,36,25,25,25,15,15,25,25,37,112,111,111,36,36,36,0,0,0,0,0,0,
0,0,0,0,0,0,0,0,0,25,25,25,25,15,15,25,113,111,111,111,36,36,36,36,0,0,0,0,0,0
</data>
 </layer>
 <objectgroup id="3" name="Collisions" class="wall">
  <object id="1" type="wall" x="129.667" y="317" width="194.667" height="26.6667"/>
  <object id="2" x="369.667" y="299.667"/>
  <object id="3" type="wall" x="-4.33333" y="23" width="134.667" height="322.667"/>
  <object id="4" type="wall" x="257.333" y="33.3333"/>
  <object id="5" x="203.333" y="331.333"/>
  <object id="6" x="208.667" y="347.333"/>
  <object id="7" x="26.3333" y="163"/>
  <object id="8" x="72.3333" y="226.333"/>
  <object id="9" x="69.6667" y="226.333"/>
  <object id="11" x="221.667" y="438.333"/>
 </objectgroup>
</map>
