<?xml version="1.0" encoding="UTF-8"?>
<map version="1.10" tiledversion="1.12.2" orientation="isometric" renderorder="right-down" width="20" height="20" tilewidth="32" tileheight="16" infinite="0" nextlayerid="5" nextobjectid="14">
 <tileset firstgid="1" name="spritesheet" tilewidth="32" tileheight="32" tilecount="121" columns="11">
  <image source="map_spritesheet.png" width="352" height="352"/>
 </tileset>
 <layer id="1" name="Tile Layer 1" width="20" height="20">
  <data encoding="csv">
37,37,37,37,37,37,25,25,1,1,5,25,25,34,34,37,37,37,37,37,
24,24,37,37,37,25,25,25,1,1,5,25,25,34,34,24,24,24,24,37,
24,24,23,37,61,61,25,25,1,1,5,25,25,24,34,34,24,24,24,24,
24,24,23,37,37,61,61,25,2,1,2,25,25,61,61,37,37,24,24,24,
24,24,24,37,37,24,24,61,5,1,2,25,25,25,61,61,37,37,24,24,
24,24,23,37,37,37,24,25,25,1,5,25,25,25,61,61,37,37,37,37,
25,23,23,23,37,34,24,24,25,1,1,5,25,25,34,34,37,37,37,37,
25,25,25,23,25,34,34,34,34,34,1,1,1,25,25,34,34,34,37,37,
1,1,25,25,25,25,34,34,34,34,37,5,1,1,5,25,25,34,37,37,
5,1,1,1,5,24,61,61,34,34,37,37,40,1,1,1,5,5,25,37,
5,5,5,1,1,24,61,61,37,34,34,37,37,40,5,1,1,5,5,5,
25,5,5,5,5,1,61,61,37,37,37,37,37,40,40,40,1,1,1,5,
34,25,25,5,5,5,1,1,61,37,37,111,111,40,40,37,40,40,1,1,
34,34,25,25,25,37,37,1,1,40,40,111,111,111,111,37,37,40,40,40,
24,34,37,37,111,111,37,1,1,1,40,40,111,111,70,70,37,37,37,37,
24,24,37,111,111,111,37,37,1,1,1,40,37,111,111,70,111,111,111,37,
24,24,37,111,111,111,111,37,25,1,1,5,37,111,111,111,70,111,62,37,
24,24,37,111,111,111,37,37,37,1,1,5,37,37,111,111,70,69,37,37,
24,24,24,24,24,24,37,24,37,25,1,1,5,37,37,111,37,37,37,37,
37,24,37,37,37,37,37,24,25,25,5,1,5,37,37,37,37,37,37,37
</data>
 </layer>
 <layer id="4" name="Tile Layer 2" width="20" height="20">
  <data encoding="csv">
0,0,0,0,0,0,45,45,0,0,52,0,0,0,0,0,0,0,0,0,
0,0,0,0,0,0,37,37,0,0,49,0,0,0,0,0,0,0,0,0,
0,0,0,0,0,0,45,37,45,0,49,0,0,0,0,0,0,0,0,0,
0,0,0,0,0,0,0,45,0,0,49,0,0,0,0,0,0,0,0,0,
0,0,0,0,0,0,0,0,0,46,0,45,45,0,0,0,0,0,0,0,
0,0,0,0,0,0,45,45,49,0,50,45,37,37,0,0,0,0,0,0,
0,45,0,0,0,0,45,45,49,0,0,45,45,37,45,0,0,0,0,0,
0,45,47,45,45,0,0,0,0,0,0,0,0,0,45,0,0,0,0,0,
0,0,47,47,47,45,0,0,45,45,0,0,0,0,0,0,0,0,0,0,
0,0,0,0,47,47,0,0,45,37,37,45,50,0,0,0,0,0,0,0,
0,0,0,0,0,0,0,0,37,45,45,45,52,0,0,0,0,0,0,0,
0,0,0,0,0,0,0,0,45,45,0,0,0,0,0,0,0,0,0,0,
0,0,0,0,0,0,0,0,0,0,0,0,0,0,0,0,0,0,0,0,
0,0,0,0,0,0,0,0,52,0,0,0,0,0,0,0,0,0,0,0,
0,0,0,0,0,0,0,0,52,0,0,0,0,0,0,0,0,0,0,0,
0,0,0,0,0,0,0,0,0,50,0,0,0,0,0,0,0,0,0,0,
0,0,0,0,0,0,0,52,0,0,0,0,0,0,0,0,0,0,0,0,
0,0,0,0,0,0,0,0,49,0,0,0,0,0,0,0,0,0,0,0,
0,0,0,0,0,0,0,0,49,0,0,0,0,0,0,0,0,0,0,0,
0,0,0,0,0,0,0,0,0,0,0,0,0,0,0,0,0,0,0,0
</data>
 </layer>
 <objectgroup id="3" name="Collisions" class="wall">
  <object id="3" type="wall" x="-35" y="-22" width="21.3337" height="675.334"/>
  <object id="4" type="wall" x="257.333" y="33.3333"/>
  <object id="5" x="203.333" y="331.333"/>
  <object id="6" x="-17.833" y="637.333" width="657.5" height="24.5"/>
  <object id="12" x="639.167" y="-3.167" width="32.5" height="639"/>
  <object id="13" x="-10.833" y="-44.667" width="637.5" height="34.5"/>
  <object id="7" x="26.3333" y="163"/>
  <object id="8" x="72.3333" y="226.333"/>
  <object id="9" x="69.6667" y="226.333"/>
 </objectgroup>
</map>
