<?xml version='1.0' encoding='UTF-8'?>
<map version="1.10" tiledversion="1.12.2" orientation="isometric" renderorder="right-down" width="144" height="80" tilewidth="32" tileheight="16" infinite="0" nextlayerid="9" nextobjectid="26">
 <properties>
  <property name="logicalId" value="level_demo" />
  <property name="stageOrder" value="collection,question,sorting" />
  <property name="collectionReward" type="float" value="15" />
  <property name="sortingItemReward" type="float" value="7" />
  <property name="sortingWrongPenalty" type="float" value="8" />
  <property name="sortingCompletionReward" type="float" value="15" />
 </properties>
 <tileset firstgid="1" name="spritesheet" tilewidth="32" tileheight="32" tilecount="121" columns="11">
  <image source="map_spritesheet.png" width="352" height="352" />
 </tileset>
 <layer id="8" name="Tile Layer 1" width="144" height="80">
  <data encoding="csv">
36,15,35,37,37,38,38,25,36,36,38,25,25,15,25,25,35,36,38,15,35,35,25,38,38,15,36,25,35,35,35,37,25,38,25,37,37,37,36,36,25,15,25,15,38,37,36,38,35,38,15,36,36,25,35,25,38,37,38,36,15,37,38,36,38,15,38,38,36,15,25,15,37,36,37,38,38,38,35,15,35,35,35,35,37,37,36,36,15,15,37,38,25,35,15,15,15,25,37,38,35,35,38,36,35,15,36,36,36,38,15,38,25,15,37,35,38,35,25,35,35,38,25,25,15,25,35,36,25,35,35,38,15,37,35,35,36,35,37,15,38,35,37,35,
37,25,37,35,36,25,37,15,38,37,35,35,35,36,37,35,38,35,15,15,25,38,38,15,37,35,25,15,25,35,38,38,37,25,37,35,37,37,35,25,35,25,25,36,25,15,15,37,36,37,35,35,36,38,38,38,37,38,25,37,36,38,38,36,35,25,15,36,15,25,35,38,38,37,35,37,38,25,37,38,15,25,36,35,36,38,37,25,35,15,37,25,36,36,36,25,37,25,37,15,15,38,37,36,25,36,37,35,38,35,36,35,37,15,25,36,35,38,38,35,36,37,15,36,35,36,37,15,15,36,35,35,38,15,35,36,35,36,15,38,35,37,36,36,
25,38,36,37,35,25,37,36,37,15,37,38,15,36,38,35,37,15,36,15,35,15,35,36,15,36,15,37,15,35,37,35,25,38,25,37,15,25,35,36,38,25,38,36,25,36,35,15,25,35,35,36,35,25,25,15,25,15,38,38,15,38,36,25,37,25,36,15,25,38,25,35,37,35,25,38,37,35,15,35,36,15,36,37,36,35,25,35,35,38,15,38,15,38,25,36,37,35,15,25,36,37,36,15,37,37,38,38,37,38,25,25,37,15,36,36,15,25,35,38,25,38,37,35,15,35,25,15,25,37,25,36,37,35,35,36,37,36,36,38,25,25,25,38,
38,37,15,15,15,25,38,37,36,35,38,36,25,38,37,37,15,25,37,15,38,15,25,38,36,37,15,35,38,15,35,15,37,35,25,15,37,15,37,36,37,37,36,37,38,38,38,35,37,38,36,15,35,38,25,35,37,38,35,25,37,37,38,36,25,37,38,38,37,15,37,15,37,38,36,38,25,36,15,36,15,36,15,25,36,37,37,37,38,36,37,35,36,37,15,25,38,35,25,25,38,15,37,15,15,36,15,37,36,37,25,25,15,35,15,35,38,36,35,25,37,35,25,37,36,35,25,15,36,15,15,38,38,37,38,25,35,38,25,15,25,25,37,38,
25,38,37,36,25,15,35,35,35,38,35,38,25,15,25,25,37,35,35,15,35,37,36,35,25,25,37,36,35,38,25,37,35,35,37,25,38,38,35,15,35,25,35,35,15,35,36,35,15,15,38,25,25,25,36,15,36,15,15,35,37,37,36,37,15,15,36,38,25,37,15,15,35,35,37,38,15,36,15,15,15,38,37,37,35,15,25,38,15,15,36,37,37,15,37,37,35,36,15,25,37,36,38,35,38,36,36,35,37,15,15,25,25,36,25,38,36,36,38,38,35,36,38,38,37,38,25,38,37,38,36,38,25,35,35,25,37,36,15,37,15,38,38,25,
35,15,36,36,37,36,38,25,35,37,37,37,36,25,37,36,36,38,38,37,36,35,36,38,35,37,25,15,25,36,38,15,36,35,38,25,35,37,15,35,38,35,38,36,15,37,35,38,38,35,38,25,37,38,37,36,36,35,25,35,37,37,25,37,35,25,37,35,37,15,36,25,36,38,36,25,37,38,38,37,35,38,36,35,25,15,37,36,36,15,37,37,35,15,35,38,35,38,15,35,36,25,35,38,36,36,35,36,36,36,25,37,38,15,36,37,35,35,15,15,35,36,25,38,25,37,35,35,36,37,25,25,25,37,35,36,36,37,36,15,37,25,25,25,
25,15,38,36,38,37,38,15,37,35,25,15,35,35,35,38,36,36,38,25,37,15,25,35,25,38,38,36,37,38,35,38,15,15,15,38,37,35,15,35,37,25,37,37,25,36,15,25,35,35,15,38,38,36,15,38,15,35,37,36,36,15,15,35,15,35,36,38,25,25,38,37,35,15,37,25,36,15,25,38,37,38,38,25,35,35,25,15,25,38,37,35,35,37,38,38,36,15,15,38,38,15,38,37,25,38,35,36,38,15,37,38,37,38,35,15,38,38,35,36,35,25,38,38,36,37,15,15,35,35,38,38,25,38,15,38,38,25,15,38,15,38,36,37,
35,38,35,25,35,15,37,38,15,35,36,38,36,35,35,38,38,38,25,36,38,25,15,35,36,35,25,35,35,25,37,35,35,25,15,38,36,35,35,38,35,37,35,15,37,15,36,36,35,15,37,15,36,37,37,38,35,15,37,37,37,36,25,35,36,15,36,25,35,38,38,37,35,15,15,38,36,38,15,35,37,25,25,15,37,37,37,38,25,36,35,35,38,38,15,36,37,36,36,35,38,25,35,35,25,35,15,15,36,38,38,25,25,38,15,25,38,38,36,37,35,37,35,36,38,38,38,36,36,37,35,15,25,36,35,15,25,38,37,15,25,38,37,25,
37,36,35,38,38,25,38,15,35,38,15,15,35,35,25,35,35,37,35,36,15,25,35,36,35,38,25,38,37,25,25,35,25,15,25,38,35,25,36,25,36,36,35,38,37,37,35,38,38,25,15,25,38,36,35,38,36,25,37,15,38,25,36,38,25,35,36,37,38,25,15,25,25,25,25,37,37,38,25,36,15,37,35,36,37,25,15,38,25,38,25,15,15,36,25,38,25,37,38,37,15,37,35,25,37,35,37,38,35,36,15,36,35,36,38,36,15,25,38,36,36,25,25,36,37,35,36,38,36,15,37,15,25,35,35,25,35,37,25,25,25,37,35,15,
37,38,15,35,36,15,37,38,36,25,25,37,25,25,15,35,37,15,37,36,15,25,25,36,25,37,36,36,15,15,38,25,36,36,36,35,35,36,35,37,38,38,15,36,38,37,15,25,37,38,25,25,35,36,37,35,36,35,36,35,37,37,36,38,15,38,38,37,15,36,25,37,38,35,38,37,36,37,36,37,35,36,38,38,38,35,25,36,15,36,15,38,38,25,35,25,15,35,36,38,35,35,36,37,37,38,37,36,37,15,38,37,36,38,37,38,37,38,37,36,37,38,36,38,37,35,37,38,25,35,37,15,35,38,38,36,35,37,15,36,37,38,37,15,
36,35,25,35,25,37,15,38,25,25,38,35,37,15,35,37,15,25,37,35,25,38,35,35,15,36,36,25,15,36,36,36,37,38,15,38,36,25,37,36,15,25,36,15,25,38,37,36,37,37,15,36,36,37,25,25,38,15,25,25,38,25,38,15,15,15,35,36,35,25,15,38,37,15,38,15,25,38,35,36,36,35,25,15,25,37,15,38,35,36,38,35,25,37,37,38,37,25,37,38,15,37,35,35,36,36,37,38,36,25,37,38,15,37,37,25,15,36,35,36,37,36,36,15,36,36,15,37,38,15,38,36,38,25,36,15,37,25,15,15,37,15,15,25,
35,38,35,35,35,36,38,36,35,37,38,25,15,25,37,35,37,36,37,25,25,25,15,38,15,37,37,15,36,36,38,15,35,25,36,38,25,25,15,37,25,36,15,35,25,25,36,37,37,15,35,38,38,36,38,36,37,37,15,36,38,38,37,37,37,37,38,15,38,35,35,15,25,25,36,36,15,36,36,15,36,37,25,15,36,35,36,25,35,36,37,37,37,36,25,37,37,37,35,36,35,35,15,36,38,25,36,37,15,35,15,15,35,36,36,25,35,15,38,37,38,15,36,15,36,36,25,38,25,15,15,25,35,15,15,15,36,38,37,25,15,37,15,37,
38,25,35,15,35,15,38,15,35,36,36,38,25,15,37,37,25,25,15,25,37,35,36,35,15,25,38,25,37,35,25,38,15,37,37,37,36,15,36,36,38,38,38,35,15,38,15,15,15,15,38,35,37,38,35,35,37,25,37,35,36,37,35,36,38,25,38,15,37,38,38,37,37,35,15,37,36,37,25,37,15,25,37,25,38,38,37,37,15,38,25,36,25,37,38,35,36,35,35,25,25,38,36,15,38,38,38,25,37,15,36,36,35,36,15,15,38,37,38,35,25,38,35,37,36,36,38,36,37,25,15,35,38,37,25,37,15,38,25,35,37,15,35,37,
37,35,25,15,37,37,38,25,25,25,37,35,36,35,37,15,38,35,36,38,38,37,36,25,25,15,25,35,35,38,15,25,36,35,35,38,25,38,15,35,37,35,35,36,35,15,38,35,15,37,38,37,37,38,25,15,15,25,15,36,15,36,38,25,15,25,36,25,35,36,15,25,25,25,25,38,36,38,35,37,36,35,36,25,38,37,35,36,35,38,38,25,25,35,15,35,38,15,38,38,38,38,38,15,35,38,36,36,35,25,37,37,15,25,25,37,35,37,36,38,25,37,15,35,15,35,25,36,35,35,35,38,36,35,38,25,25,15,35,36,25,38,36,35,
35,37,38,38,25,38,36,25,36,37,15,35,37,37,38,25,25,35,15,25,25,15,37,35,15,15,25,37,36,25,36,36,25,25,36,36,36,35,37,37,35,35,38,37,37,35,38,38,15,36,25,15,37,36,36,36,38,25,15,15,36,36,25,37,15,36,38,36,15,37,15,36,38,36,37,36,15,36,36,35,25,36,36,25,35,25,25,35,25,15,15,25,25,15,38,15,38,15,36,38,37,38,25,15,25,36,37,38,15,15,36,38,25,25,25,15,35,37,36,36,37,35,37,15,25,35,36,38,36,37,38,36,38,38,36,15,38,38,15,38,35,37,38,36,
15,25,35,25,15,37,35,35,36,25,36,15,25,15,25,36,35,36,37,38,25,38,15,25,38,25,36,38,38,37,38,35,36,38,25,36,25,38,25,36,36,36,37,35,35,35,25,15,38,15,37,36,36,37,36,36,36,37,38,37,37,38,15,35,25,35,37,25,35,36,25,38,36,15,15,36,15,36,36,25,38,36,38,35,15,35,35,37,37,25,36,36,37,35,15,25,36,36,36,38,38,36,37,35,37,37,38,37,35,37,38,37,15,25,36,38,15,35,38,38,38,25,35,36,37,35,36,15,37,36,38,15,38,36,15,38,35,38,35,15,37,35,38,15,
15,37,15,15,38,15,25,15,25,38,15,37,36,15,38,38,15,38,35,15,25,15,35,37,36,36,15,37,15,25,38,36,37,37,35,37,36,35,38,25,15,37,37,25,37,35,35,36,37,35,35,25,25,25,38,38,36,37,38,35,25,38,37,25,38,35,25,38,38,35,38,38,25,38,15,25,36,37,36,36,25,38,15,38,25,38,15,37,15,37,38,38,37,37,37,25,35,37,25,36,36,36,25,25,36,35,37,25,37,36,25,38,25,25,25,15,38,15,35,35,15,38,25,35,25,25,35,25,15,15,35,38,15,15,25,35,37,37,25,35,25,15,15,36,
35,37,15,15,37,38,36,35,25,38,35,38,37,15,15,25,36,15,15,25,37,15,35,35,38,37,37,15,36,38,15,25,35,15,35,15,37,15,15,36,38,35,36,38,35,36,36,25,36,36,37,37,36,15,25,15,37,38,38,38,38,36,38,15,36,35,25,36,25,25,38,37,35,15,15,25,38,36,35,38,36,35,37,38,35,25,35,35,38,37,25,25,25,36,38,38,38,38,36,36,38,25,15,36,37,35,37,35,15,37,37,38,37,37,38,25,35,36,15,38,35,15,15,36,38,35,38,37,36,35,35,38,36,38,25,37,37,38,15,37,25,25,15,38,
36,38,15,35,38,25,35,15,36,37,15,15,35,15,15,37,35,37,37,35,15,35,38,38,37,25,25,35,15,35,35,35,37,15,25,15,36,25,38,15,15,37,15,25,36,36,35,15,35,25,35,36,15,35,15,38,35,37,35,25,38,37,38,36,36,35,35,37,37,37,25,25,35,25,15,15,35,15,38,35,36,37,15,35,15,35,25,15,37,37,38,25,25,38,25,35,36,38,25,36,38,36,37,35,15,36,25,37,15,36,38,37,15,38,38,37,37,15,25,35,36,35,25,37,25,25,35,25,25,38,35,38,25,37,35,38,37,36,38,36,36,25,36,37,
35,37,37,35,25,35,36,38,37,38,37,35,25,36,35,37,38,37,25,35,36,15,38,25,38,37,15,35,38,15,15,37,36,15,37,15,38,36,15,15,37,35,38,38,25,38,25,36,37,25,36,38,15,35,15,37,37,35,36,25,38,37,35,25,15,35,36,25,35,15,37,35,37,36,35,38,35,37,36,35,38,38,25,38,25,15,15,25,36,35,38,25,37,36,35,36,25,36,37,35,36,37,37,25,15,38,36,35,25,36,35,37,37,37,15,36,15,35,25,15,35,38,25,35,37,35,37,25,15,36,35,36,15,36,15,15,15,37,35,15,15,15,25,37,
25,35,35,25,36,25,35,25,37,36,38,35,36,25,37,37,35,35,38,37,35,38,36,36,36,38,35,35,38,15,36,36,35,36,15,36,25,36,35,36,15,37,15,25,25,35,37,36,15,37,36,35,35,36,37,38,25,35,15,36,15,35,35,35,15,37,36,15,38,37,35,35,35,38,38,38,38,25,38,37,37,35,25,36,36,15,35,35,37,37,38,37,35,36,35,15,37,38,35,37,36,36,38,35,15,38,15,25,38,38,36,38,36,36,38,37,15,25,15,25,38,37,15,38,25,38,15,36,36,25,35,35,25,15,37,25,37,15,15,38,15,35,37,35,
35,36,25,37,38,25,36,25,35,36,36,35,37,25,15,36,37,35,25,15,38,36,15,36,15,15,36,35,36,35,35,37,15,36,25,37,15,15,36,38,38,37,36,15,38,36,38,37,35,38,38,36,25,25,15,15,36,37,37,25,15,25,36,35,38,38,38,35,38,36,36,37,25,38,15,35,38,36,37,25,38,38,35,38,35,36,35,36,36,36,35,36,35,36,25,37,37,25,25,37,15,35,37,37,38,35,15,15,36,15,36,15,37,35,35,35,36,35,15,37,38,38,35,35,25,36,37,38,35,38,35,15,25,37,35,35,36,36,35,37,25,36,36,36,
35,36,38,36,25,37,35,15,38,37,37,37,36,35,36,35,25,36,36,37,25,36,36,37,36,37,37,38,15,36,25,25,38,35,35,36,38,36,35,25,15,15,37,25,38,36,25,15,35,25,38,25,38,25,35,36,15,37,37,37,25,25,36,37,38,25,25,37,25,35,37,38,15,25,15,36,36,15,35,37,36,15,15,15,15,35,25,25,15,37,38,15,38,36,38,15,35,15,15,25,35,38,25,25,37,36,37,37,38,37,35,38,25,38,37,38,37,15,35,35,36,35,25,35,25,25,36,36,38,15,37,15,25,36,36,36,38,25,36,36,38,36,36,25,
38,36,35,36,37,37,36,35,15,36,15,37,25,38,37,38,35,37,36,37,35,25,38,38,38,37,36,36,25,38,35,25,37,38,15,37,36,25,15,25,36,15,15,36,25,37,38,38,38,35,37,38,38,15,15,15,38,37,15,36,37,25,35,37,35,15,37,36,35,36,36,36,25,35,38,15,36,25,35,15,36,15,15,37,37,36,25,15,36,15,37,37,15,36,15,25,37,15,35,15,25,37,36,15,15,37,36,35,37,35,15,15,38,38,15,15,38,15,15,37,36,38,15,25,36,37,35,35,38,35,38,35,36,37,15,25,36,38,35,25,35,25,38,15,
15,36,36,36,38,38,15,25,36,37,37,15,35,37,15,25,36,25,38,25,35,36,36,25,15,15,38,38,37,15,38,35,35,38,25,15,35,25,38,15,37,37,15,36,35,37,38,37,36,15,15,15,36,25,37,15,36,25,37,25,35,37,25,36,15,25,38,37,38,15,15,15,35,35,25,36,35,36,15,15,38,15,38,36,35,35,38,36,25,38,25,37,35,38,36,15,15,36,36,15,15,15,38,36,15,15,15,37,36,15,36,38,15,15,15,35,36,36,36,36,36,36,36,36,37,35,36,15,38,38,25,36,35,15,38,25,15,37,15,36,15,36,25,36,
35,37,38,25,15,15,15,38,35,35,36,36,36,25,37,36,36,38,25,36,25,25,35,36,37,37,36,15,37,37,25,25,38,38,37,15,36,15,38,25,25,36,37,15,37,36,36,35,38,37,15,35,35,25,15,15,15,38,38,25,15,25,25,37,37,25,36,15,38,36,15,38,15,15,35,37,15,35,25,38,36,15,25,36,37,36,36,37,36,35,36,25,38,35,25,37,38,15,37,38,37,38,15,36,25,36,15,36,25,37,25,38,36,37,15,25,37,35,15,15,25,25,36,36,36,37,15,36,36,36,35,37,36,25,38,37,36,37,37,38,25,25,35,15,
38,35,25,15,35,36,38,25,25,15,38,37,37,36,37,37,37,25,36,35,36,36,15,25,36,36,15,35,15,36,25,15,38,37,15,25,37,38,37,36,36,36,38,37,44,44,44,25,15,36,36,36,25,37,38,36,37,38,36,15,15,15,37,38,36,37,38,36,37,36,36,36,38,37,44,44,44,25,15,36,36,36,25,15,15,15,37,38,36,37,38,36,37,38,36,37,38,36,37,36,36,36,38,37,44,44,37,37,25,35,15,37,37,25,35,25,15,37,38,38,36,35,25,37,25,38,38,38,38,38,38,15,25,15,25,37,37,36,36,37,25,37,36,38,
15,37,25,25,35,15,38,15,25,37,38,25,25,25,35,15,38,38,38,37,38,37,35,37,35,36,38,15,36,25,38,25,37,38,25,35,36,15,38,36,37,36,37,37,44,44,44,25,15,25,36,36,25,38,36,37,38,36,37,15,15,25,38,36,37,38,36,37,38,36,37,36,37,37,44,44,44,25,15,25,36,36,25,15,15,25,38,36,37,38,36,37,38,36,37,38,36,37,38,36,37,36,37,37,44,44,38,36,35,37,15,25,15,25,37,38,38,36,36,25,36,35,36,38,15,25,25,37,35,35,38,35,37,38,25,36,38,38,25,37,37,15,38,35,
36,37,15,36,15,15,15,37,37,38,37,25,35,37,15,36,15,38,38,38,15,37,35,37,38,15,36,37,15,15,36,35,25,15,36,35,25,25,36,36,36,36,37,37,44,44,44,25,15,25,25,36,25,36,37,38,36,37,38,15,25,15,36,37,38,36,37,38,36,36,36,36,37,37,44,44,44,25,15,25,25,36,25,15,25,15,36,37,38,36,37,38,36,37,38,36,37,38,36,36,36,36,37,37,44,44,35,36,15,38,36,15,37,25,36,37,15,36,37,15,36,15,25,37,25,36,38,25,37,36,36,25,36,25,15,25,25,38,36,25,36,36,35,36,
35,15,25,15,36,37,15,37,36,36,36,37,35,15,36,36,15,35,38,15,36,38,38,25,15,35,25,38,15,37,15,36,25,25,38,36,36,38,37,36,36,36,37,37,37,37,25,38,15,10,25,38,36,37,36,36,37,38,36,25,15,15,37,38,36,37,38,36,37,36,36,36,37,37,37,37,25,38,15,10,25,38,36,25,15,15,37,38,36,37,38,36,37,38,36,37,38,36,37,36,36,36,37,37,37,37,38,36,25,37,38,37,25,38,38,35,35,25,36,35,35,36,15,38,35,37,38,38,36,37,35,37,25,25,38,36,15,25,38,36,38,25,38,35,
36,37,15,35,38,37,37,38,38,15,38,38,37,15,38,15,37,38,25,35,36,35,15,35,38,35,15,15,35,36,37,37,36,15,25,36,25,15,38,36,36,36,36,25,25,37,38,38,15,10,10,36,36,36,36,36,38,36,37,15,15,15,38,36,37,38,36,37,38,36,36,36,36,25,25,37,38,38,15,10,10,36,36,15,15,15,38,36,37,38,36,37,38,36,37,38,36,37,38,36,36,36,36,25,25,37,38,38,35,37,15,38,35,37,35,35,37,38,37,37,38,35,37,36,15,36,37,35,35,35,15,36,37,37,25,38,38,38,37,36,38,25,36,37,
25,15,36,36,15,36,15,38,25,35,38,35,35,25,37,38,35,38,15,38,38,37,35,25,38,36,35,37,25,36,37,37,35,35,38,25,25,25,36,37,38,36,36,37,25,41,38,41,40,15,10,10,10,36,36,36,38,38,38,15,15,25,36,37,38,36,37,38,36,37,38,36,36,37,25,41,38,41,40,15,10,10,10,15,15,25,38,38,38,36,37,38,36,37,38,36,37,38,36,37,38,36,36,37,25,41,15,35,36,35,36,36,25,25,15,35,35,35,37,37,15,38,36,37,38,35,36,25,36,36,35,15,38,37,25,36,35,37,37,15,37,36,15,36,
37,15,35,25,35,15,37,37,25,25,37,37,35,37,15,36,37,15,15,37,37,15,37,35,36,15,37,25,37,36,37,15,35,25,36,25,25,25,37,38,36,37,36,36,41,28,38,29,40,15,10,10,36,36,36,36,38,38,36,15,25,15,37,38,36,37,38,36,37,38,36,37,36,36,41,28,38,29,40,15,10,10,36,15,25,15,38,38,36,37,38,36,37,38,36,37,38,36,37,38,36,37,36,36,41,28,25,35,36,35,36,36,25,36,25,15,37,38,38,15,25,37,15,38,25,35,37,25,25,37,37,15,25,37,35,35,25,38,38,38,35,37,35,35,
37,37,35,15,15,37,36,37,38,38,38,37,37,38,36,38,37,37,37,25,37,15,15,38,37,35,25,35,25,25,37,38,37,15,38,37,36,37,38,36,37,38,37,37,41,28,38,37,37,40,15,40,10,36,36,37,38,38,38,25,15,15,38,36,37,38,36,37,38,36,37,38,37,37,41,28,38,37,37,40,15,40,10,25,15,15,38,38,38,38,36,37,38,36,37,38,36,37,38,36,37,38,37,37,41,28,25,38,36,15,25,36,38,25,38,36,25,37,37,36,15,36,37,36,37,25,15,36,37,37,25,25,35,37,25,38,35,25,35,15,36,25,37,35,
35,36,35,25,36,25,25,15,25,38,25,37,15,25,35,25,38,37,25,25,38,25,37,15,35,37,25,38,38,25,15,35,37,35,38,35,36,15,36,37,38,36,37,37,29,29,38,37,37,38,15,38,38,37,37,38,37,38,38,15,15,15,36,37,38,36,37,38,36,37,38,36,37,37,29,29,38,37,37,38,15,38,38,15,15,15,37,38,38,38,37,38,36,37,38,36,37,38,36,37,38,36,37,37,29,29,35,25,35,37,38,37,37,25,36,38,36,35,35,35,38,38,25,37,15,35,25,38,35,15,35,36,36,25,15,38,38,15,15,38,36,25,36,15,
15,15,35,38,37,25,37,37,25,35,35,15,25,36,38,15,37,35,25,36,15,36,35,37,35,15,37,37,15,37,36,15,25,36,37,36,35,36,37,38,36,37,38,36,37,37,38,37,37,38,15,38,25,38,37,37,38,38,38,15,15,25,37,38,36,37,38,36,37,38,36,37,38,36,37,37,38,37,37,38,15,38,25,15,15,25,38,38,38,38,38,36,37,38,36,37,38,36,37,38,36,37,38,36,37,37,25,25,35,25,25,35,15,35,25,15,25,37,37,35,37,36,15,35,35,37,15,36,36,38,15,35,38,15,15,15,37,37,38,37,37,15,35,38,
36,35,36,37,35,36,37,35,35,36,36,15,36,35,38,38,15,37,38,35,38,38,35,25,37,35,25,38,25,38,37,35,15,36,25,15,35,36,38,36,37,38,36,36,36,37,38,38,38,38,15,38,38,38,37,38,38,38,38,15,25,15,38,36,37,38,36,37,38,36,37,38,36,36,36,37,38,38,38,38,15,38,38,15,25,15,38,38,38,38,36,37,38,36,37,38,36,37,38,36,37,38,36,36,36,37,25,15,35,37,25,15,15,35,25,35,35,25,35,15,37,35,25,25,38,36,37,15,36,15,38,36,37,35,25,38,38,25,38,35,25,25,35,37,
36,15,15,35,37,37,37,25,35,37,37,15,35,35,37,25,36,35,25,25,38,15,35,37,37,15,36,25,25,38,37,15,37,25,36,36,38,36,36,37,38,36,36,36,36,36,36,37,37,15,15,38,38,38,38,38,36,37,38,25,15,15,36,37,38,36,37,38,36,37,38,36,36,36,36,36,36,37,37,15,15,38,38,25,15,15,36,37,38,36,37,38,36,37,38,36,37,38,36,37,38,36,36,36,36,36,38,15,36,38,25,38,38,25,36,37,37,25,37,25,37,36,25,38,36,36,38,36,36,36,38,25,36,15,25,15,36,35,36,35,15,38,36,35,
15,37,37,25,37,35,25,37,35,38,37,15,37,36,35,38,37,25,37,36,36,15,38,15,25,25,37,25,37,38,15,25,35,37,35,37,25,37,25,15,15,15,25,15,15,15,25,15,15,15,25,15,15,15,25,15,15,15,25,15,15,15,25,15,15,15,25,15,15,15,25,15,15,15,25,15,15,15,25,15,15,15,25,15,15,15,25,15,15,15,25,15,15,15,25,15,15,15,25,15,15,15,25,15,15,15,25,37,25,37,37,35,38,38,38,37,37,35,36,38,25,35,15,38,38,15,35,37,15,15,15,36,36,37,35,35,37,25,38,15,37,36,25,15,
37,25,38,38,15,35,15,35,38,36,36,37,25,15,15,35,36,15,38,25,35,38,36,35,35,35,15,15,37,35,36,25,36,25,25,25,38,38,15,15,15,25,15,15,15,25,15,15,15,25,15,15,15,25,15,15,15,25,15,15,15,25,15,15,15,25,15,15,15,25,15,15,15,25,15,15,15,25,15,15,15,25,15,15,15,25,15,15,15,25,15,15,15,25,15,15,15,25,15,15,15,25,15,15,15,25,35,37,25,15,38,15,38,38,37,15,35,36,36,35,15,25,15,37,37,25,25,25,38,38,15,35,38,36,35,25,36,35,15,25,25,25,35,15,
38,35,15,36,37,35,36,37,25,37,38,36,37,36,25,15,35,15,15,15,38,35,38,37,37,38,25,36,38,36,35,15,36,38,35,37,37,38,15,15,25,15,15,15,25,15,15,15,25,15,15,15,25,15,15,15,25,15,15,15,25,15,15,15,25,15,15,15,25,15,15,15,25,15,15,15,25,15,15,15,25,15,15,15,25,15,15,15,25,15,15,15,25,15,15,15,25,15,15,15,25,15,15,15,25,15,38,15,36,38,35,37,25,36,25,25,38,38,35,38,15,38,37,25,37,37,25,25,38,15,36,37,37,36,38,37,37,25,15,38,36,36,35,36,
36,15,15,25,36,15,37,37,25,38,15,36,25,35,15,36,35,36,35,15,15,25,35,25,35,38,15,38,36,37,35,38,15,38,35,38,38,15,15,25,15,15,15,25,15,15,15,25,15,15,15,25,15,15,15,25,15,15,15,25,15,15,15,25,15,15,15,25,15,15,15,25,15,15,15,25,15,15,15,25,15,15,15,25,15,15,15,25,15,15,15,25,15,15,15,25,15,15,15,25,15,15,15,25,15,15,38,25,36,35,35,36,25,35,35,25,38,25,15,35,38,37,35,25,37,25,25,38,25,36,35,25,37,15,38,36,38,25,36,35,38,35,36,38,
35,36,38,25,36,37,15,35,15,36,38,36,36,15,15,35,35,15,35,36,37,25,37,15,35,37,15,36,38,25,38,15,25,15,35,36,35,25,38,36,37,38,36,37,38,36,25,25,25,15,15,25,25,37,36,37,38,36,36,15,15,15,38,36,37,38,36,37,38,36,37,38,36,37,38,36,25,25,25,15,15,25,25,15,15,15,38,36,36,36,36,37,38,36,37,38,36,37,38,36,37,38,36,37,38,36,25,25,37,35,15,15,38,36,35,38,15,15,15,38,25,35,25,15,37,15,38,37,36,38,36,37,25,35,38,37,15,15,25,37,36,25,38,25,
38,15,37,25,15,36,37,36,25,37,37,37,15,25,37,37,15,35,38,38,36,36,38,36,37,15,38,25,25,36,36,25,37,37,15,38,36,15,36,37,38,36,37,38,36,25,25,25,25,15,15,25,38,36,37,38,36,36,36,15,15,25,36,37,38,36,37,38,36,37,38,36,37,38,36,25,25,25,25,15,15,25,38,15,15,25,36,36,36,36,37,38,36,37,38,36,37,38,36,37,38,36,37,38,36,25,35,38,38,15,36,37,37,25,37,37,15,25,25,38,15,25,25,37,37,25,36,36,35,35,25,15,25,25,35,35,25,36,25,25,38,36,15,36,
38,15,38,35,36,15,37,37,37,35,38,36,36,35,35,37,36,37,25,25,35,36,37,35,37,35,35,15,38,35,37,35,36,35,36,15,38,37,37,38,36,37,37,37,44,44,25,15,15,25,36,36,25,37,38,36,37,38,36,15,25,15,37,38,36,37,38,36,37,38,36,37,37,37,44,44,25,15,15,25,36,36,25,15,25,15,37,38,36,37,38,36,37,38,36,37,38,36,37,38,36,37,37,37,44,44,37,37,38,35,35,15,37,25,25,25,38,38,35,36,15,25,25,25,37,25,25,15,15,25,38,15,38,36,35,36,25,36,15,36,35,36,37,35,
36,35,36,15,36,38,36,15,35,15,25,37,15,38,37,35,36,25,15,15,25,15,25,15,35,15,35,37,25,37,37,35,25,35,38,35,38,35,38,36,36,36,36,37,44,44,25,25,15,36,36,36,25,38,36,37,38,36,37,25,15,15,38,36,37,38,36,37,38,36,36,36,36,37,44,44,25,25,15,36,36,36,25,25,15,15,38,36,37,38,36,37,38,36,37,38,36,37,38,36,36,36,36,37,44,44,37,36,25,37,37,35,36,15,35,38,38,15,25,15,25,35,15,25,38,37,15,25,38,35,15,25,25,38,35,15,36,37,35,15,36,37,25,38,
35,35,37,38,38,37,37,15,15,38,37,36,15,38,15,35,36,38,36,36,25,15,25,38,25,38,25,35,25,15,38,15,38,37,15,35,37,37,36,36,36,36,37,37,44,44,44,25,15,36,36,36,25,36,37,38,36,37,38,15,15,15,36,37,38,36,37,38,36,36,36,36,37,37,44,44,44,25,15,36,36,36,25,15,15,15,36,37,38,36,37,38,36,37,38,36,37,38,36,36,36,36,37,37,44,44,25,37,25,15,36,15,37,36,35,37,25,38,35,37,37,25,36,35,15,15,35,35,38,37,37,37,15,15,37,37,35,38,37,35,25,37,25,37,
15,25,35,36,35,15,37,38,15,36,35,38,25,36,25,15,38,36,38,37,15,15,38,25,36,35,35,15,36,37,38,35,25,25,36,35,37,38,37,36,36,36,37,37,44,44,44,25,15,25,36,36,25,37,38,36,37,38,36,15,15,25,37,38,36,37,38,36,37,36,36,36,37,37,44,44,44,25,15,25,36,36,25,15,15,25,37,38,36,37,38,36,37,38,36,37,38,36,37,36,36,36,37,37,44,44,37,37,15,25,38,15,15,38,38,35,36,38,37,37,35,25,37,36,35,35,35,37,35,25,35,37,25,36,38,15,37,15,38,15,15,38,38,25,
38,15,36,37,25,35,15,37,35,35,15,36,15,37,36,38,15,25,37,25,15,25,25,38,35,36,25,15,38,35,37,36,37,25,15,36,37,36,38,36,36,36,36,37,44,44,44,25,15,25,25,36,25,38,36,37,38,36,37,15,25,15,38,36,37,38,36,37,38,36,36,36,36,37,44,44,44,25,15,25,25,36,25,15,25,15,38,36,37,38,36,37,38,36,37,38,36,37,38,36,36,36,36,37,44,44,25,36,25,38,25,25,35,15,37,15,15,35,36,37,15,36,36,15,25,37,35,15,37,38,38,25,25,37,35,37,25,36,25,15,36,35,15,15,
25,37,37,36,15,36,38,15,37,38,36,15,38,37,38,15,15,15,35,25,37,25,25,15,38,37,38,35,35,38,25,25,15,35,25,35,36,37,36,36,36,36,37,37,37,37,25,38,15,10,25,37,36,36,36,38,36,37,38,25,15,15,36,37,38,36,37,38,36,36,36,36,37,37,37,37,25,38,15,10,25,37,36,25,15,15,36,37,38,36,37,38,36,37,38,36,37,38,36,36,36,36,37,37,37,37,36,37,37,35,25,36,36,37,37,25,38,35,38,36,25,35,35,25,38,36,25,15,25,37,36,36,15,15,15,15,36,38,15,37,35,25,37,36,
25,35,35,25,25,36,38,15,15,36,36,25,15,36,25,35,38,38,37,38,36,38,36,38,36,35,37,35,38,38,37,37,37,37,38,25,25,25,37,38,36,36,36,25,25,37,38,38,15,10,10,38,36,36,36,36,37,38,36,15,15,15,37,38,36,37,38,36,37,38,36,36,36,25,25,37,38,38,15,10,10,38,36,15,15,15,37,38,36,37,38,36,37,38,36,37,38,36,37,38,36,36,36,25,25,37,35,35,35,38,15,38,15,15,25,37,38,38,36,36,15,37,36,35,37,38,37,35,38,36,38,15,36,35,35,38,15,15,37,36,37,37,35,36,
36,37,36,35,25,36,36,25,25,36,15,15,25,25,35,15,15,15,37,36,36,25,38,37,25,36,15,35,36,38,38,36,25,35,36,15,36,35,38,36,37,36,36,37,25,41,38,41,40,15,10,10,10,36,36,36,38,38,37,15,15,25,38,36,37,38,36,37,38,36,37,36,36,37,25,41,38,41,40,15,10,10,10,15,15,25,38,38,37,38,36,37,38,36,37,38,36,37,38,36,37,36,36,37,25,41,15,15,35,25,38,25,36,15,38,25,15,37,38,37,15,36,25,15,25,36,38,35,38,15,25,25,36,36,15,15,15,36,36,36,35,35,37,35,
38,25,15,15,25,37,15,15,25,25,25,25,37,36,15,35,15,38,15,35,15,25,38,37,25,25,37,35,35,15,15,38,36,25,25,36,37,15,36,37,38,36,36,36,41,28,38,29,40,15,10,10,36,36,36,36,38,38,38,15,25,15,36,37,38,36,37,38,36,37,38,36,36,36,41,28,38,29,40,15,10,10,36,15,25,15,38,38,38,36,37,38,36,37,38,36,37,38,36,37,38,36,36,36,41,28,38,15,36,36,25,25,35,35,25,36,35,38,38,38,15,35,15,38,37,37,36,35,37,35,25,25,15,37,25,37,38,35,25,36,25,38,25,36,
35,35,36,36,25,38,15,37,37,38,37,37,25,37,35,36,15,37,36,25,36,36,25,38,25,36,35,15,38,35,36,25,35,37,15,37,15,38,37,38,36,37,37,37,41,28,38,37,37,40,15,40,10,36,36,37,37,38,38,25,15,15,37,38,36,37,38,36,37,38,36,37,37,37,41,28,38,37,37,40,15,40,10,25,15,15,37,38,38,37,38,36,37,38,36,37,38,36,37,38,36,37,37,37,41,28,36,37,37,35,25,38,38,37,37,15,25,38,15,38,25,15,38,25,38,38,38,15,25,15,37,36,15,35,25,36,36,38,38,15,25,15,36,36,
36,36,38,38,37,35,25,25,36,37,38,15,35,38,35,37,35,38,15,15,35,38,36,35,38,36,35,37,35,25,37,37,38,36,15,36,35,38,35,25,38,38,38,35,15,25,35,25,38,15,36,37,37,36,35,38,15,35,38,15,35,15,38,35,37,38,25,38,25,37,37,35,37,38,25,25,15,15,37,38,15,25,25,35,25,37,38,37,38,15,15,35,35,36,36,37,35,37,36,36,36,15,37,38,35,35,36,36,36,36,37,36,15,25,37,25,25,15,36,35,25,37,36,38,36,25,37,36,35,37,36,37,35,15,36,25,35,37,38,38,37,15,15,15,
36,35,38,36,36,15,15,38,38,38,25,38,25,25,36,36,36,35,15,38,25,15,38,37,36,35,38,15,35,36,36,36,37,25,15,25,35,35,15,38,38,36,25,35,35,25,37,35,15,36,37,15,37,36,35,35,25,35,15,38,15,36,38,38,35,36,38,35,35,36,38,37,35,35,38,38,35,36,37,35,37,15,36,25,38,36,15,38,37,15,37,38,36,15,37,15,38,37,36,35,35,15,35,36,25,37,15,35,38,37,37,37,36,37,38,15,15,36,35,25,36,36,35,37,37,37,37,35,38,37,15,37,37,38,15,25,15,25,15,25,25,25,37,15,
37,38,25,15,38,37,37,37,15,37,35,38,25,37,37,15,38,35,38,38,37,35,25,38,36,37,36,37,38,25,15,25,36,35,38,36,37,35,38,15,37,37,35,15,37,35,37,35,35,35,25,35,37,25,25,37,25,35,25,25,25,15,15,15,36,36,35,36,25,37,25,37,37,25,38,15,15,35,15,15,35,15,37,25,25,25,15,36,25,35,35,25,25,35,38,38,38,35,38,15,25,36,25,36,15,15,25,37,35,35,37,25,15,25,38,15,35,37,38,37,37,15,38,38,35,35,15,35,15,15,38,38,36,35,15,25,15,25,15,36,35,15,35,35,
25,25,15,15,38,37,36,25,35,15,35,38,36,37,15,36,25,15,35,38,38,35,37,35,37,36,35,36,35,35,15,38,38,36,35,15,25,15,37,15,15,15,35,35,37,25,35,38,38,25,15,36,15,37,25,37,15,35,35,37,15,35,38,37,38,38,25,37,25,38,15,15,25,37,35,38,25,35,36,36,15,36,37,35,25,25,15,36,37,15,37,36,37,37,36,36,36,38,35,36,36,37,15,38,36,38,25,35,15,35,35,35,37,25,36,25,36,25,15,35,37,38,35,25,35,37,15,38,36,25,25,35,38,15,36,35,38,36,38,38,15,25,35,25,
25,15,15,25,38,15,37,36,37,15,25,37,25,25,38,15,15,15,25,38,36,36,15,25,36,25,25,36,25,15,35,25,25,37,35,35,35,38,35,36,35,36,15,36,35,38,25,36,25,25,37,25,15,36,37,15,35,36,35,38,15,35,35,37,36,37,15,37,37,25,25,35,15,37,15,37,36,37,35,37,37,15,35,36,25,37,38,37,36,38,25,25,35,37,25,36,36,37,37,37,25,36,37,36,36,38,36,36,25,36,37,37,38,38,36,25,35,38,36,36,35,25,35,37,38,36,37,38,36,35,36,36,35,35,38,25,38,38,25,36,35,36,15,35,
37,35,35,15,37,15,37,37,35,15,36,38,37,36,38,36,15,35,36,25,37,38,36,37,38,25,37,38,37,25,36,25,38,36,36,36,37,35,35,35,38,36,37,25,36,37,36,15,25,37,36,35,25,37,36,35,15,36,36,35,38,36,37,25,15,15,15,37,38,15,15,37,37,35,35,25,25,36,37,15,38,36,35,38,36,36,15,36,37,25,38,36,36,36,35,36,37,15,36,38,38,25,35,37,15,38,37,37,37,35,38,36,35,15,36,35,38,15,35,15,25,25,38,38,37,15,38,38,38,37,35,25,25,36,38,25,35,35,15,37,37,37,36,37,
36,35,15,25,36,36,25,25,35,37,25,37,35,36,15,15,25,36,38,15,15,37,38,15,15,15,25,37,25,25,25,38,38,36,35,15,37,25,37,15,25,37,38,35,25,15,35,15,37,38,35,15,35,38,38,37,25,38,35,36,35,35,25,25,35,38,25,37,38,37,25,36,37,38,38,36,38,37,15,36,35,35,37,36,38,15,15,15,15,35,35,36,37,37,36,25,36,38,25,15,38,37,36,15,36,38,25,25,35,25,35,37,25,25,25,25,37,38,37,36,37,35,37,36,15,35,37,36,37,25,35,15,36,37,38,38,25,38,35,36,35,15,35,38,
35,15,38,35,25,25,37,36,36,36,38,15,15,37,36,37,35,37,15,37,38,25,36,38,35,25,37,38,15,15,37,36,37,25,38,36,38,15,25,38,35,37,15,36,36,35,15,35,25,36,35,38,35,15,37,35,25,15,37,25,35,25,35,37,36,38,35,35,35,25,37,38,25,35,38,36,15,35,36,35,37,36,38,15,25,25,36,36,15,36,36,38,36,15,35,15,38,36,38,15,25,36,25,25,15,36,25,36,15,36,25,37,38,36,36,35,38,37,35,25,35,15,35,35,15,25,36,37,36,37,38,38,37,38,38,38,37,25,35,35,37,36,36,15,
37,15,35,38,36,15,35,35,35,35,36,15,38,37,25,37,15,25,25,37,15,37,25,38,37,38,15,36,37,37,25,35,38,35,36,36,37,37,35,25,38,36,15,36,25,36,38,38,15,15,35,38,36,15,37,15,25,25,36,36,15,25,37,25,35,38,37,25,35,25,36,25,37,25,15,37,25,37,36,38,15,36,35,38,15,37,37,37,15,15,25,36,36,36,25,35,25,35,15,15,37,37,38,36,37,36,38,35,37,37,35,15,35,36,37,36,37,38,25,36,25,36,25,38,35,37,36,36,38,37,25,15,35,25,15,36,15,25,35,37,35,15,38,25,
35,25,37,36,37,37,38,15,38,36,25,38,38,15,35,35,37,35,37,25,38,15,35,15,35,38,38,35,37,35,35,15,37,37,25,36,38,25,35,37,15,25,37,37,37,25,37,35,37,37,35,15,15,25,38,35,36,38,37,25,38,35,35,38,35,15,37,15,37,35,38,38,37,37,36,35,25,15,37,15,36,15,25,38,25,36,35,35,38,38,37,35,25,15,15,38,36,15,25,37,35,38,37,36,35,36,35,37,38,15,36,36,15,15,38,25,25,36,35,37,15,25,37,25,15,15,36,38,35,15,15,25,15,15,37,37,37,36,25,35,38,38,35,38,
37,37,36,37,37,15,37,35,35,36,25,37,25,35,35,36,35,15,37,25,37,38,15,15,15,25,37,35,15,15,36,36,35,38,37,36,25,36,15,35,25,37,15,37,36,37,38,36,38,25,35,15,35,15,35,25,38,15,15,38,37,37,37,36,35,37,37,35,15,37,25,15,36,36,38,36,15,35,15,36,37,15,38,25,15,38,38,37,25,35,36,25,37,38,38,35,38,38,36,38,38,15,25,36,15,38,38,37,15,37,25,36,15,37,36,36,15,35,37,36,25,15,25,36,25,15,15,36,36,15,15,38,36,35,25,15,35,37,15,35,36,25,37,37,
25,36,35,37,15,25,37,38,38,15,38,25,25,25,35,36,35,36,25,36,25,36,38,35,36,15,35,35,25,37,35,35,38,35,15,15,15,35,37,15,36,36,15,35,37,25,38,35,38,25,35,38,15,35,15,15,15,38,35,35,25,35,36,35,38,36,38,38,25,38,15,35,35,35,15,36,37,38,35,38,15,25,38,25,37,37,36,15,25,38,35,38,15,15,37,35,37,38,35,37,25,37,38,35,15,25,38,25,37,35,15,38,15,37,37,38,25,37,25,35,25,38,15,25,25,25,25,37,37,37,25,35,38,37,15,35,36,37,15,37,15,36,25,37,
37,25,37,38,35,15,25,35,36,25,25,36,38,38,37,36,37,38,36,36,35,25,35,38,36,36,25,25,35,15,25,37,35,37,35,38,37,15,38,38,35,15,25,15,37,35,25,36,37,35,25,36,35,36,25,36,25,25,25,38,36,25,25,36,15,15,37,37,38,38,35,25,37,36,15,37,15,15,37,38,15,25,36,25,36,25,25,15,35,36,15,35,36,25,37,25,15,36,38,15,25,25,38,36,38,37,25,37,37,15,35,37,35,15,25,36,25,35,37,25,36,35,38,38,38,36,36,36,35,25,15,37,36,37,38,35,36,36,15,36,35,25,15,37,
37,38,15,36,38,15,25,38,25,38,25,25,15,35,35,36,38,37,37,38,25,15,15,38,15,37,15,15,38,35,35,15,15,38,36,38,35,25,15,38,35,38,37,35,25,38,15,36,35,15,15,25,25,25,38,37,38,38,35,15,38,38,35,37,37,15,35,25,25,36,38,37,25,15,25,38,37,35,35,37,15,38,38,36,36,35,36,37,37,25,38,25,25,37,35,37,35,35,25,38,15,35,37,25,15,35,38,35,35,38,36,38,36,35,15,38,35,38,35,35,38,36,36,25,35,36,15,15,25,36,15,25,35,38,36,25,35,15,38,15,38,35,35,15,
38,15,25,38,38,15,15,38,35,38,25,37,25,38,15,36,38,35,25,15,35,25,37,36,36,15,35,37,35,38,15,25,37,38,37,36,37,15,36,25,37,15,15,25,25,25,38,36,35,37,15,35,25,15,38,25,15,25,15,15,35,37,15,25,15,37,35,37,35,36,25,15,15,35,36,38,25,36,38,36,25,37,35,36,25,35,25,38,38,36,15,36,36,35,25,25,35,38,35,15,38,25,37,37,36,38,15,38,38,37,37,37,35,36,15,25,15,37,25,35,25,37,37,36,38,25,15,15,25,36,37,25,35,36,15,38,35,25,36,15,25,36,15,35,
15,38,37,38,35,25,35,38,25,35,36,15,37,15,37,35,36,38,38,25,37,15,38,36,35,37,37,25,25,36,37,25,15,36,36,36,37,36,35,38,25,37,15,15,38,15,36,38,35,36,37,25,35,15,36,25,35,36,35,25,37,35,15,36,37,36,37,35,25,35,25,38,35,35,38,36,15,38,35,36,36,36,25,36,15,35,15,25,25,37,36,36,37,37,35,15,37,35,15,15,38,38,25,37,38,36,15,25,35,35,36,36,15,25,35,35,15,38,38,25,36,38,15,25,35,15,35,37,35,38,25,37,37,35,25,37,38,36,35,25,36,15,36,25,
15,38,35,38,15,36,15,15,15,38,15,38,37,35,35,35,36,38,25,37,38,35,35,15,25,37,37,35,36,37,25,37,25,15,38,36,37,36,36,15,37,15,38,15,36,36,15,25,15,15,35,37,15,35,15,36,36,15,25,38,15,37,35,37,36,15,38,35,37,37,15,37,38,36,15,25,38,38,15,35,15,38,38,36,15,15,38,37,35,15,38,25,15,36,25,15,35,37,25,25,15,37,25,38,15,25,15,35,36,38,15,38,25,38,35,15,35,36,38,37,15,37,37,36,38,38,15,36,35,37,38,35,35,15,35,15,37,37,38,37,38,37,37,35,
36,36,38,35,38,36,38,36,36,37,38,38,15,38,37,37,37,38,15,35,25,35,38,35,38,35,25,37,35,25,25,35,25,35,36,36,15,37,15,38,35,37,36,38,25,25,35,35,38,25,15,36,25,36,25,35,35,37,15,35,37,35,38,25,36,35,37,36,15,38,25,37,37,15,15,38,35,15,36,25,35,35,15,25,38,38,36,35,25,38,37,36,38,38,15,38,37,36,38,37,38,25,38,15,37,37,38,37,36,15,15,37,38,36,38,38,36,38,37,25,15,37,36,38,35,35,25,25,35,38,25,38,37,15,38,38,37,36,35,35,25,36,36,37,
35,36,36,35,36,36,35,37,37,36,37,38,35,38,15,35,36,25,35,25,25,15,25,25,35,37,15,36,38,38,25,37,35,38,37,15,15,25,37,15,38,15,15,36,35,25,38,36,38,25,38,25,35,36,38,36,38,38,38,35,15,15,15,38,35,36,38,25,15,25,36,15,25,36,25,35,15,38,15,25,38,36,38,37,15,36,38,38,36,37,38,37,36,37,36,15,15,36,37,38,37,25,38,37,35,25,38,15,25,35,38,25,15,36,37,35,35,25,15,38,37,35,15,35,25,25,25,37,15,35,15,38,36,37,38,36,37,38,36,37,35,15,36,25,
36,38,15,37,36,38,15,25,35,15,38,38,37,15,25,37,25,35,15,25,36,35,25,15,15,35,36,37,38,37,35,38,38,25,38,37,38,15,25,25,35,15,36,25,38,15,38,35,38,38,15,35,37,15,37,15,15,38,37,25,25,35,25,25,37,15,15,37,15,15,37,35,36,37,36,15,37,37,36,35,38,25,15,37,15,37,38,35,25,36,25,38,37,37,35,25,35,36,25,25,15,15,35,35,38,35,38,37,38,15,38,15,36,36,37,15,36,36,25,36,36,37,38,38,36,38,25,15,15,36,38,37,38,37,36,36,25,38,36,35,35,37,35,15,
25,37,25,37,25,25,36,36,25,37,15,15,38,36,36,35,25,35,36,35,25,35,37,36,37,38,15,37,38,36,37,38,25,35,38,37,37,15,38,38,38,35,36,15,15,15,25,37,25,15,25,36,37,25,36,37,37,15,15,15,36,36,15,36,15,36,37,36,38,25,37,38,38,15,36,25,25,35,38,37,25,25,37,25,38,15,25,15,15,35,15,37,35,25,36,35,37,38,15,15,37,38,37,15,36,37,37,15,15,38,38,15,25,36,36,38,35,38,38,38,35,25,36,36,36,37,35,15,36,15,35,36,36,25,35,35,35,36,37,15,36,35,25,38,
25,15,36,38,35,38,38,25,35,36,25,25,37,15,15,15,25,36,25,15,36,36,38,35,35,35,35,37,35,15,36,15,15,25,35,36,38,38,25,25,36,15,15,35,38,38,15,15,25,36,15,25,36,37,37,36,36,25,36,36,35,35,38,25,25,35,37,37,37,25,38,35,35,35,25,36,36,36,25,36,36,38,15,37,25,36,38,35,36,36,36,38,15,35,35,25,35,36,25,36,38,35,38,38,37,37,25,36,35,15,25,25,15,35,25,36,25,15,35,36,25,38,35,36,37,38,38,38,25,15,38,25,36,37,37,35,15,25,25,25,15,15,35,37,
15,37,37,35,38,15,35,36,36,15,36,25,15,15,37,37,36,38,35,35,35,25,37,38,37,15,36,37,15,15,38,36,35,15,36,25,38,35,38,35,38,38,25,36,15,15,25,25,15,36,37,36,37,25,35,25,15,25,38,36,36,37,25,38,25,15,38,35,37,36,37,25,15,15,37,25,37,38,37,35,37,15,38,37,38,35,25,37,35,35,37,38,15,25,25,38,15,15,15,38,36,25,38,25,35,38,25,36,35,35,25,15,25,38,36,38,25,37,15,37,37,37,36,38,25,15,15,15,36,38,36,38,25,25,15,36,25,35,36,37,37,36,15,35,
36,37,36,36,25,25,36,25,15,35,25,38,36,37,25,15,36,15,38,25,38,36,36,38,38,35,25,15,25,37,15,36,37,36,36,38,36,15,15,38,37,36,37,38,36,25,35,35,36,38,15,38,35,15,37,36,25,37,37,35,37,15,15,15,35,25,25,36,36,37,35,37,37,36,38,37,37,25,35,38,37,25,36,37,25,36,38,36,38,15,15,35,35,25,35,15,35,15,37,37,36,37,38,36,25,25,38,38,35,38,36,37,15,35,35,35,37,36,36,15,25,38,25,35,37,15,25,38,36,37,35,36,35,36,25,36,36,37,36,38,35,15,15,25,
25,15,36,36,37,35,15,25,37,35,38,38,38,35,15,35,25,35,35,38,36,35,35,25,25,35,35,36,25,15,37,35,36,37,37,38,25,15,25,35,36,35,38,36,36,25,15,36,25,36,37,36,36,36,25,35,37,37,25,38,15,38,15,36,36,35,37,15,15,35,37,37,35,36,25,36,35,25,37,25,15,25,35,36,38,38,15,25,37,15,25,38,36,35,37,37,35,15,37,37,35,38,37,25,15,15,35,36,37,15,38,37,38,36,38,35,35,36,25,36,38,38,15,15,35,35,38,15,38,36,15,38,15,15,38,36,15,37,38,25,25,37,15,37,
15,38,15,25,36,35,25,25,38,35,36,35,38,25,38,37,15,37,38,38,15,38,38,37,37,25,38,38,25,15,25,37,38,15,38,35,15,15,36,25,38,37,35,36,38,25,15,25,35,36,35,36,37,35,38,25,35,37,25,35,35,36,37,38,15,25,15,37,38,35,25,37,15,35,36,35,35,37,35,38,36,35,15,36,25,38,15,37,37,36,25,25,15,25,15,38,38,36,35,36,15,35,38,25,25,35,25,25,25,35,35,35,36,15,37,25,38,37,37,25,36,36,25,37,25,38,38,37,35,36,25,25,15,35,36,25,25,36,37,38,37,15,37,25
</data>
 </layer>
 <objectgroup id="1" name="Players">
  <object id="1" name="demo_player_1" type="demoPlayer1" x="372.0" y="730.0" width="16" height="24">
   <properties><property name="logicalId" value="demo_player_1" /></properties>
  </object>
  <object id="2" name="demo_player_2" type="demoPlayer2" x="407.0" y="730.0" width="16" height="24">
   <properties><property name="logicalId" value="demo_player_2" /></properties>
  </object>
 </objectgroup>
 <objectgroup id="2" name="Stage 1 - Collection">
  <object id="3" name="collection_bag_01" type="demoCollectable" x="352.0" y="620.0" width="24" height="24">
   <properties><property name="logicalId" value="collection_bag_01" /><property name="itemId" value="collection-01" /><property name="stage" type="int" value="1" /></properties>
  </object>
  <object id="4" name="collection_bag_02" type="demoCollectable" x="492.0" y="670.0" width="24" height="24">
   <properties><property name="logicalId" value="collection_bag_02" /><property name="itemId" value="collection-02" /><property name="stage" type="int" value="1" /></properties>
  </object>
  <object id="5" name="collection_bag_03" type="demoCollectable" x="412.0" y="830.0" width="24" height="24">
   <properties><property name="logicalId" value="collection_bag_03" /><property name="itemId" value="collection-03" /><property name="stage" type="int" value="1" /></properties>
  </object>
  <object id="6" name="collection_bag_04" type="demoCollectable" x="612.0" y="780.0" width="24" height="24">
   <properties><property name="logicalId" value="collection_bag_04" /><property name="itemId" value="collection-04" /><property name="stage" type="int" value="1" /></properties>
  </object>
 </objectgroup>
 <objectgroup id="3" name="Stage 2 - Questions">
  <object id="7" name="environment_question_point" type="demoQuestionPoint" x="972.0" y="720.0" width="36" height="36">
   <properties>
    <property name="logicalId" value="environment_question_point" />
    <property name="questionResource" value="assets/questions/environment.dat" />
    <property name="stage" type="int" value="2" />
   </properties>
  </object>
 </objectgroup>
 <objectgroup id="4" name="Stage 3 - Sorting Area">
  <object id="8" name="sorting_zone" type="demoSortingZone" x="1372.0" y="560.0" width="360" height="370">
   <properties><property name="logicalId" value="sorting_zone" /><property name="stage" type="int" value="3" /></properties>
  </object>
  <object id="9" name="sorting_intake" type="demoIntake" x="1372.0" y="740.0" width="24" height="24">
   <properties><property name="logicalId" value="sorting_intake" /><property name="stage" type="int" value="3" /></properties>
  </object>
  <object id="10" name="bin_black" type="demoBin" x="1432.0" y="620.0" width="72" height="58">
   <properties><property name="logicalId" value="bin_black" /><property name="binId" value="black" /><property name="label" value="BLACK - General" /><property name="color" value="#272727" /><property name="stage" type="int" value="3" /></properties>
  </object>
  <object id="11" name="bin_blue" type="demoBin" x="1602.0" y="620.0" width="72" height="58">
   <properties><property name="logicalId" value="bin_blue" /><property name="binId" value="blue" /><property name="label" value="BLUE - Recyclables" /><property name="color" value="#397ac7" /><property name="stage" type="int" value="3" /></properties>
  </object>
  <object id="12" name="bin_green" type="demoBin" x="1432.0" y="810.0" width="72" height="58">
   <properties><property name="logicalId" value="bin_green" /><property name="binId" value="green" /><property name="label" value="GREEN - Organic" /><property name="color" value="#3e914c" /><property name="stage" type="int" value="3" /></properties>
  </object>
  <object id="13" name="bin_red" type="demoBin" x="1602.0" y="810.0" width="72" height="58">
   <properties><property name="logicalId" value="bin_red" /><property name="binId" value="red" /><property name="label" value="RED - Hazardous" /><property name="color" value="#bd4545" /><property name="stage" type="int" value="3" /></properties>
  </object>
 </objectgroup>
 <objectgroup id="5" name="Stage 3 - Sorting Waste">
  <object id="14" name="sort_wrapper" type="demoSortingWaste" x="1042.0" y="580.0" width="24" height="24">
   <properties><property name="logicalId" value="sort_wrapper" /><property name="itemId" value="wrapper" /><property name="itemName" value="Greasy snack wrapper" /><property name="binId" value="black" /><property name="stage" type="int" value="3" /></properties>
  </object>
  <object id="15" name="sort_foam" type="demoSortingWaste" x="1152.0" y="620.0" width="24" height="24">
   <properties><property name="logicalId" value="sort_foam" /><property name="itemId" value="foam" /><property name="itemName" value="Used foam food box" /><property name="binId" value="black" /><property name="stage" type="int" value="3" /></properties>
  </object>
  <object id="16" name="sort_newspaper" type="demoSortingWaste" x="1252.0" y="570.0" width="24" height="24">
   <properties><property name="logicalId" value="sort_newspaper" /><property name="itemId" value="newspaper" /><property name="itemName" value="Clean newspaper" /><property name="binId" value="blue" /><property name="stage" type="int" value="3" /></properties>
  </object>
  <object id="17" name="sort_can" type="demoSortingWaste" x="1302.0" y="680.0" width="24" height="24">
   <properties><property name="logicalId" value="sort_can" /><property name="itemId" value="can" /><property name="itemName" value="Clean aluminium can" /><property name="binId" value="blue" /><property name="stage" type="int" value="3" /></properties>
  </object>
  <object id="18" name="sort_peel" type="demoSortingWaste" x="1042.0" y="870.0" width="24" height="24">
   <properties><property name="logicalId" value="sort_peel" /><property name="itemId" value="peel" /><property name="itemName" value="Banana peel" /><property name="binId" value="green" /><property name="stage" type="int" value="3" /></properties>
  </object>
  <object id="19" name="sort_leaves" type="demoSortingWaste" x="1152.0" y="900.0" width="24" height="24">
   <properties><property name="logicalId" value="sort_leaves" /><property name="itemId" value="leaves" /><property name="itemName" value="Dry yard leaves" /><property name="binId" value="green" /><property name="stage" type="int" value="3" /></properties>
  </object>
  <object id="20" name="sort_battery" type="demoSortingWaste" x="1252.0" y="840.0" width="24" height="24">
   <properties><property name="logicalId" value="sort_battery" /><property name="itemId" value="battery" /><property name="itemName" value="Used battery" /><property name="binId" value="red" /><property name="stage" type="int" value="3" /></properties>
  </object>
  <object id="21" name="sort_phone" type="demoSortingWaste" x="1312.0" y="920.0" width="24" height="24">
   <properties><property name="logicalId" value="sort_phone" /><property name="itemId" value="phone" /><property name="itemName" value="Broken mobile phone" /><property name="binId" value="red" /><property name="stage" type="int" value="3" /></properties>
  </object>
 </objectgroup>
 <objectgroup id="6" name="Map Boundaries">
  <object id="22" name="wall_top" type="wall" x="192.0" y="480.0" width="1700" height="20"><properties><property name="logicalId" value="wall_top" /></properties></object>
  <object id="23" name="wall_bottom" type="wall" x="192.0" y="970.0" width="1700" height="20"><properties><property name="logicalId" value="wall_bottom" /></properties></object>
  <object id="24" name="wall_left" type="wall" x="192.0" y="480.0" width="20" height="510"><properties><property name="logicalId" value="wall_left" /></properties></object>
  <object id="25" name="wall_right" type="wall" x="1872.0" y="480.0" width="20" height="510"><properties><property name="logicalId" value="wall_right" /></properties></object>
 </objectgroup>
</map>